assets/sonr-icons/bne-fill.svg

<svg xmlns="http://www.w3.org/2000/svg" width="24" height="24" fill="none"><path fill="currentColor" stroke="#000" d="m11.885 10.334.105-.107.108.106a1 1 0 0 0-.214.002h.001zm1.71 2.048a.97.97 0 0 0-.008-.78c.232.06.482.034.698-.084a.98.98 0 0 0-.002.963.98.98 0 0 0-.689-.099zm2.928-1.766a.976.976 0 0 0-1.179-.16.966.966 0 0 0-.165-1.175l-2.492-2.492a.963.963 0 0 0-1.385.001L8.82 9.282a.966.966 0 0 0-.164 1.174.976.976 0 0 0-1.179.16l-.69.69a.977.977 0 0 0 0 1.387l.69.69c.32.32.8.374 1.175.162a.96.96 0 0 0 .169 1.162l2.497 2.506a.983.983 0 0 0 1.377 0l.001-.001 2.489-2.499a.98.98 0 0 0 .166-1.167.975.975 0 0 0 1.174-.163l.69-.69a.975.975 0 0 0 0-1.387l-.69-.69.001-.001zm-6.811.897c.215.117.463.15.696.098a.98.98 0 0 0 0 .778.98.98 0 0 0-.689.086.98.98 0 0 0-.007-.962Zm2.293 2.255-.102-.101a1 1 0 0 0 .203-.001zM2.75 12c0-5.104 4.146-9.25 9.25-9.25s9.25 4.146 9.25 9.25c0 5.094-4.147 9.25-9.25 9.25S2.75 17.094 2.75 12Z"/></svg>

<svg xmlns="http://www.w3.org/2000/svg" width="24" height="24" fill="none" viewBox="0 0 24 24"><path fill="#000" stroke="#000" stroke-width="1" d="M11.885 10.334L11.99 10.227L12.098 10.333C12.027 10.326 11.955 10.326 11.884 10.335H11.885V10.334ZM13.595 12.382C13.701 12.133 13.699 11.849 13.587 11.602C13.819 11.662 14.069 11.636 14.285 11.518C14.115 11.816 14.115 12.183 14.283 12.481C14.071 12.363 13.825 12.33 13.594 12.382H13.595ZM16.523 10.616C16.201 10.294 15.718 10.241 15.344 10.456C15.559 10.083 15.504 9.594 15.179 9.281L12.687 6.789C12.31 6.398 11.677 6.398 11.302 6.79L8.82 9.282C8.496 9.595 8.441 10.084 8.656 10.456C8.281 10.241 7.798 10.294 7.477 10.616L6.787 11.306C6.402 11.691 6.402 12.308 6.787 12.693L7.477 13.383C7.797 13.703 8.277 13.757 8.652 13.545C8.446 13.915 8.494 14.391 8.821 14.707L11.318 17.213C11.693 17.588 12.32 17.588 12.695 17.213L12.696 17.212L15.185 14.713C15.503 14.395 15.558 13.919 15.351 13.546C15.725 13.758 16.205 13.704 16.525 13.383L17.215 12.693C17.601 12.308 17.601 11.691 17.215 11.306L16.525 10.616L16.526 10.615L16.523 10.616ZM9.712 11.513C9.927 11.63 10.175 11.663 10.408 11.611C10.3 11.859 10.3 12.141 10.408 12.389C10.176 12.332 9.929 12.364 9.719 12.475C9.886 12.176 9.883 11.81 9.712 11.513ZM12.005 13.768L11.903 13.667C11.971 13.674 12.038 13.674 12.106 13.666L12.005 13.768ZM2.75 12C2.75 6.896 6.896 2.75 12 2.75C17.104 2.75 21.25 6.896 21.25 12C21.25 17.094 17.103 21.25 12 21.25C6.897 21.25 2.75 17.094 2.75 12Z"/></svg>
